src/assets/filled/TicketStar.svg

<svg width="24" height="24" viewBox="0 0 24 24"  xmlns="http://www.w3.org/2000/svg">
<path d="M16.6501 3.85999H9.91012V6.87999C9.91012 7.26999 9.59012 7.57999 9.21012 7.57999C8.83012 7.57999 8.51012 7.26999 8.51012 6.87999V3.85999H7.35012C3.40012 3.85999 2.10012 5.03999 2.01012 8.72999C2.00012 8.90999 2.08012 9.09999 2.21012 9.22999C2.34012 9.36999 2.51012 9.43999 2.71012 9.43999C4.11012 9.43999 5.26012 10.6 5.26012 12C5.26012 13.4 4.11012 14.56 2.71012 14.56C2.52012 14.56 2.34012 14.63 2.21012 14.77C2.08012 14.9 2.00012 15.09 2.01012 15.27C2.10012 18.96 3.40012 20.14 7.35012 20.14H8.51012V17.12C8.51012 16.73 8.83012 16.42 9.21012 16.42C9.59012 16.42 9.91012 16.73 9.91012 17.12V20.14H16.6501C20.7501 20.14 22.0001 18.89 22.0001 14.79V9.20999C22.0001 5.10999 20.7501 3.85999 16.6501 3.85999ZM18.4701 11.9L17.5401 12.8C17.5001 12.83 17.4901 12.89 17.5001 12.94L17.7201 14.21C17.7601 14.44 17.6701 14.68 17.4701 14.82C17.2801 14.96 17.0301 14.98 16.8201 14.87L15.6701 14.27C15.6301 14.25 15.5701 14.25 15.5301 14.27L14.3801 14.87C14.2901 14.92 14.1901 14.94 14.0901 14.94C13.9601 14.94 13.8401 14.9 13.7301 14.82C13.5401 14.68 13.4401 14.45 13.4801 14.21L13.7001 12.94C13.7101 12.89 13.6901 12.84 13.6601 12.8L12.7301 11.9C12.5601 11.74 12.5001 11.49 12.5701 11.27C12.6401 11.04 12.8301 10.88 13.0701 10.85L14.3501 10.66C14.4001 10.65 14.4401 10.62 14.4701 10.58L15.0401 9.41999C15.1501 9.20999 15.3601 9.07999 15.6001 9.07999C15.8401 9.07999 16.0501 9.20999 16.1501 9.41999L16.7201 10.58C16.7401 10.63 16.7801 10.66 16.8301 10.66L18.1101 10.85C18.3501 10.88 18.5401 11.05 18.6101 11.27C18.7001 11.49 18.6401 11.73 18.4701 11.9Z" />
</svg>

<?xml version="1.0" encoding="UTF-8"?>
<svg width="24" height="24" viewBox="0 0 24 24" xmlns="http://www.w3.org/2000/svg">
 <path d="m16.65 3.86h-6.74v3.02c0 0.39-0.32 0.7-0.7 0.7s-0.7-0.31-0.7-0.7v-3.02h-1.16c-3.95 0-5.25 1.18-5.34 4.87-0.01 0.18 0.07 0.37 0.2 0.5 0.13 0.14 0.3 0.21 0.5 0.21 1.4 0 2.55 1.16 2.55 2.56s-1.15 2.56-2.55 2.56c-0.19 0-0.37 0.07-0.5 0.21-0.13 0.13-0.21 0.32-0.2 0.5 0.09 3.69 1.39 4.87 5.34 4.87h1.16v-3.02c0-0.39 0.32-0.7 0.7-0.7s0.7 0.31 0.7 0.7v3.02h6.74c4.1 0 5.35-1.25 5.35-5.35v-5.58c0-4.1-1.25-5.35-5.35-5.35zm1.82 8.04-0.93 0.9c-0.04 0.03-0.05 0.09-0.04 0.14l0.22 1.27c0.04 0.23-0.05 0.47-0.25 0.61-0.19 0.14-0.44 0.16-0.65 0.05l-1.15-0.6c-0.04-0.02-0.1-0.02-0.14 0l-1.15 0.6c-0.09 0.05-0.19 0.07-0.29 0.07-0.13 0-0.25-0.04-0.36-0.12-0.19-0.14-0.29-0.37-0.25-0.61l0.22-1.27c0.01-0.05-0.01-0.1-0.04-0.14l-0.93-0.9c-0.17-0.16-0.23-0.41-0.16-0.63 0.07-0.23 0.26-0.39 0.5-0.42l1.28-0.19c0.05-0.01 0.09-0.04 0.12-0.08l0.57-1.16c0.11-0.21 0.32-0.34 0.56-0.34s0.45 0.13 0.55 0.34l0.57 1.16c0.02 0.05 0.06 0.08 0.11 0.08l1.28 0.19c0.24 0.03 0.43 0.2 0.5 0.42 0.09 0.22 0.03 0.46-0.14 0.63z"/>
</svg>
